src/ng-app/assets/tcc_logo.svg

<?xml version="1.0" encoding="UTF-8" standalone="no"?>
<svg
   xmlns:osb="http://www.openswatchbook.org/uri/2009/osb"
   xmlns:dc="http://purl.org/dc/elements/1.1/"
   xmlns:cc="http://creativecommons.org/ns#"
   xmlns:rdf="http://www.w3.org/1999/02/22-rdf-syntax-ns#"
   xmlns:svg="http://www.w3.org/2000/svg"
   xmlns="http://www.w3.org/2000/svg"
   height="29.748404"
   width="63.139"
   viewBox="0 0 63.139 29.748404"
   version="1.1"
   id="Icon">
  <defs
     id="defs2">
    <linearGradient
       id="linearGradient12666"
       osb:paint="solid">
      <stop
         style="stop-color:#e27b00;stop-opacity:1;"
         offset="0"
         id="stop12664" />
    </linearGradient>
  </defs>
  <metadata
     id="metadata5">
    <rdf:RDF>
      <cc:Work
         rdf:about="">
        <dc:format>image/svg+xml</dc:format>
        <dc:type
           rdf:resource="http://purl.org/dc/dcmitype/StillImage" />
        <dc:title></dc:title>
      </cc:Work>
    </rdf:RDF>
  </metadata>
  <path
     id="icon-maincolor"
     d="M 22.664062 0 C 20.953052 0 19.784009 0.24272862 18.992188 1.0566406 C 18.200366 1.8706456 18.208075 2.8883561 18.197266 3.5800781 C 18.186546 4.2718941 18.169384 4.7824459 17.957031 5.2167969 C 17.744611 5.6510469 17.323558 6.1508485 16.046875 6.6796875 C 14.770282 7.2084325 14.117641 7.1530147 13.660156 6.9960938 C 13.202671 6.8390647 12.829169 6.4894035 12.332031 6.0078125 C 11.834843 5.5260195 11.119994 4.8022944 9.984375 4.7871094 C 8.8487763 4.7712494 7.8491008 5.4261797 6.6386719 6.6367188 C 5.4282627 7.8471567 4.7738066 8.8468249 4.7890625 9.9824219 C 4.8043475 11.118027 5.5281406 11.834851 6.0097656 12.332031 C 6.4914202 12.829303 6.8410917 13.202581 6.9980469 13.660156 C 7.1550222 14.11773 7.2104319 14.768178 6.6816406 16.044922 C 6.1528493 17.321472 5.6532174 17.742568 5.21875 17.955078 C 4.7842624 18.167598 4.2721968 18.186346 3.5800781 18.197266 C 2.8879594 18.209166 1.8704289 18.206511 1.0566406 18.994141 C 0.24287248 19.786401 0 20.955979 0 22.667969 C 0 24.379759 0.24282271 25.549627 1.0566406 26.341797 C 1.8704492 27.133967 2.8879594 27.127752 3.5800781 27.138672 C 4.2721968 27.149572 4.7842827 27.166796 5.21875 27.378906 C 5.6531979 27.591406 6.1528493 28.012423 6.6816406 29.289062 C 6.7492356 29.452143 6.8079426 29.604427 6.8574219 29.748047 L 9.3652344 29.748047 C 9.2675654 29.309237 9.1211059 28.847088 8.9199219 28.361328 C 8.2406862 26.721508 7.3107311 25.705555 6.2832031 25.203125 C 5.2556557 24.700585 4.2723212 24.725174 3.6191406 24.714844 C 2.9659499 24.703944 2.7902821 24.648649 2.7460938 24.605469 C 2.7019247 24.562769 2.421875 24.112849 2.421875 22.667969 C 2.421875 21.222789 2.7018943 20.773449 2.7460938 20.730469 C 2.7903638 20.687769 2.9659204 20.629471 3.6191406 20.619141 C 4.2723406 20.608241 5.2556751 20.633199 6.2832031 20.130859 C 7.3107117 19.628319 8.2406862 18.612586 8.9199219 16.972656 C 9.5991475 15.332836 9.6602238 13.956896 9.2890625 12.875 C 8.9178709 11.792995 8.2025944 11.113814 7.7480469 10.644531 C 7.2934899 10.175341 7.2117819 10.010959 7.2109375 9.9492188 C 7.2109375 9.8877187 7.3317937 9.3732105 8.3535156 8.3515625 C 9.375207 7.3298125 9.889504 7.2081914 9.9511719 7.2089844 C 10.012811 7.2089844 10.177246 7.295006 10.646484 7.75 C 11.115681 8.204596 11.793059 8.9178435 12.875 9.2890625 C 13.95694 9.6602895 15.334784 9.5972828 16.974609 8.9179688 C 18.614344 8.2387487 19.630256 7.3106131 20.132812 6.2832031 C 20.635382 5.2557931 20.608947 4.2702915 20.619141 3.6171875 C 20.629261 2.9641755 20.687883 2.7898658 20.730469 2.7460938 C 20.773049 2.7024038 21.219924 2.421875 22.664062 2.421875 C 24.108183 2.421875 24.55778 2.7030849 24.601562 2.7480469 C 24.645432 2.7927569 24.703757 2.9682767 24.714844 3.6210938 C 24.725864 4.2739027 24.700167 5.2563921 25.203125 6.2832031 C 25.7061 7.3100141 26.724241 8.2389508 28.363281 8.9179688 C 30.003064 9.5972827 31.379017 9.6602895 32.460938 9.2890625 C 33.542879 8.9178435 34.220235 8.204596 34.689453 7.75 C 35.158672 7.295403 35.323108 7.2097774 35.384766 7.2089844 C 35.437766 7.2089844 35.829182 7.3004574 36.585938 7.9746094 C 37.219037 7.4498374 37.888564 6.9703933 38.589844 6.5351562 C 37.427584 5.3930983 36.455228 4.7722204 35.353516 4.7871094 C 34.217888 4.8029694 33.501085 5.5260195 33.003906 6.0078125 C 32.506737 6.4894035 32.131324 6.8390648 31.673828 6.9960938 C 31.216362 7.1530147 30.565655 7.2084325 29.289062 6.6796875 C 28.013054 6.1510435 27.591781 5.6513419 27.378906 5.2167969 C 27.166049 4.7822519 27.148442 4.2719951 27.136719 3.5800781 C 27.125109 2.8881541 27.13075 1.8696506 26.337891 1.0566406 C 25.545811 0.24362262 24.377077 0.000497 22.666016 0 L 22.664062 0 z M 60.634766 13.443359 L 58.748047 15.634766 C 59.778017 17.442046 60.369141 19.533971 60.369141 21.769531 C 60.369141 24.813051 59.276224 27.593404 57.464844 29.746094 L 60.859375 29.746094 C 62.302056 27.427154 63.138672 24.694641 63.138672 21.769531 C 63.138672 18.696041 62.214906 15.835149 60.634766 13.443359 z M 27.574219 17.332031 C 21.351892 17.332031 23.810324 17.347369 17.587891 17.355469 L 17.476562 18.441406 C 23.084982 18.453926 20.08959 18.403018 25.693359 18.429688 L 23.939453 21.199219 L 22.742188 19.142578 L 20.986328 19.142578 L 23.025391 22.488281 L 19.414062 27.623047 C 25.636594 27.623047 23.197297 27.596162 29.419922 27.570312 C 29.455471 27.205946 29.491694 26.842874 29.527344 26.478516 L 21.378906 26.505859 L 23.556641 23.308594 L 25.03125 25.779297 L 26.792969 25.779297 L 24.484375 22.041016 L 27.574219 17.332031 z "
     style="fill:var(--icon-main)" />
  <path
     id="icon-detail"
     d="M 47.986328 6.6171875 C 39.634179 6.6171875 32.833984 13.417358 32.833984 21.769531 C 32.833984 24.694541 33.670603 27.427154 35.113281 29.746094 L 38.507812 29.746094 C 36.696411 27.593404 35.605469 24.812951 35.605469 21.769531 C 35.605469 14.914451 41.131272 9.3886719 47.986328 9.3886719 C 50.218725 9.3886719 52.309614 9.9766982 54.115234 11.003906 L 56.306641 9.1152344 C 53.916384 7.5379394 51.056821 6.6171875 47.986328 6.6171875 z M 23.398438 10.251953 C 16.358726 10.251953 10.626953 15.983738 10.626953 23.023438 C 10.626953 25.488788 11.330887 27.791514 12.546875 29.746094 L 15.408203 29.746094 C 13.881442 27.931664 12.962891 25.588638 12.962891 23.023438 C 12.962891 17.245587 17.620571 12.585938 23.398438 12.585938 C 25.280043 12.585938 27.040601 13.083495 28.5625 13.949219 L 30.410156 12.357422 C 28.395508 11.027873 25.986444 10.251953 23.398438 10.251953 z M 58.476562 10.970703 A 0.27701333 0.27701333 0 0 0 58.304688 11.050781 L 47.140625 20.667969 A 1.3850666 1.3850666 0 0 0 47 20.789062 A 1.3850666 1.3850666 0 0 0 47 22.746094 A 1.3850666 1.3850666 0 0 0 48.958984 22.746094 A 1.3850666 1.3850666 0 0 0 49.085938 22.599609 L 58.695312 11.443359 A 0.27701333 0.27701333 0 0 0 58.695312 11.050781 A 0.27701333 0.27701333 0 0 0 58.476562 10.970703 z "
     style="fill:var(--icon-detail);" />
</svg>

<?xml version="1.0" encoding="UTF-8" standalone="no"?>
<svg
   xmlns:osb="http://www.openswatchbook.org/uri/2009/osb"
   xmlns:dc="http://purl.org/dc/elements/1.1/"
   xmlns:cc="http://creativecommons.org/ns#"
   xmlns:rdf="http://www.w3.org/1999/02/22-rdf-syntax-ns#"
   xmlns:svg="http://www.w3.org/2000/svg"
   xmlns="http://www.w3.org/2000/svg"
   id="Icon"
   version="1.1"
   viewBox="0 0 63.138671 29.748047"
   width="63.138672"
   height="29.748047">

  <path
     d="m 22.66406,0 c -1.71101,0 -2.88005,0.242728 -3.67187,1.05664 -0.79182,0.814005 -0.78411,1.831716 -0.79492,2.523438 -0.0107,0.691816 -0.0279,1.202367 -0.24024,1.636718 -0.21242,0.43425 -0.63347,0.934052 -1.91015,1.462891 -1.2766,0.528745 -1.92924,0.473327 -2.38672,0.316406 C 13.20267,6.839064 12.82917,6.489403 12.33203,6.007812 11.83484,5.526019 11.11999,4.802294 9.98438,4.787109 8.84878,4.771249 7.8491,5.426179 6.63867,6.636718 5.42826,7.847156 4.77381,8.846824 4.78906,9.982421 c 0.0153,1.135606 0.73908,1.85243 1.22071,2.34961 0.48165,0.497272 0.83132,0.87055 0.98828,1.328125 0.15697,0.457574 0.21238,1.108022 -0.31641,2.384766 -0.52879,1.27655 -1.02842,1.697646 -1.46289,1.910156 -0.43449,0.21252 -0.94655,0.231268 -1.63867,0.242188 -0.69212,0.0119 -1.70965,0.0092 -2.52344,0.796875 C 0.24287,19.786401 0,20.955979 0,22.667969 c 0,1.71179 0.24282,2.881658 1.05664,3.673828 0.81381,0.79217 1.83132,0.785955 2.52344,0.796875 0.69212,0.0109 1.2042,0.02812 1.63867,0.240234 0.43445,0.2125 0.9341,0.633517 1.46289,1.910156 0.0676,0.163081 0.1263,0.315365 0.17578,0.458985 H 9.36523 C 9.26753,29.309237 9.12111,28.847088 8.91992,28.361328 8.24069,26.721508 7.31073,25.705555 6.2832,25.203125 5.25566,24.700585 4.27232,24.725174 3.61914,24.714844 c -0.65319,-0.0109 -0.82886,-0.0662 -0.87305,-0.109375 -0.0442,-0.0427 -0.32421,-0.49262 -0.32421,-1.9375 0,-1.44518 0.28001,-1.89452 0.32421,-1.9375 0.0443,-0.0427 0.21983,-0.100998 0.87305,-0.111328 0.6532,-0.0109 1.63654,0.01406 2.66406,-0.488282 1.02751,-0.50254 1.95749,-1.518273 2.63672,-3.158203 C 9.59915,15.332836 9.66022,13.956896 9.28906,12.875 8.91787,11.792995 8.20259,11.113814 7.74805,10.644531 7.29349,10.175341 7.21178,10.010959 7.21094,9.949218 c 0,-0.0615 0.12085,-0.576008 1.14258,-1.597656 1.02169,-1.02175 1.53598,-1.143371 1.59765,-1.142578 0.0616,0 0.22608,0.08602 0.69531,0.541016 0.4692,0.454596 1.14658,1.167843 2.22852,1.539062 1.08194,0.371227 2.45978,0.30822 4.09961,-0.371094 1.63973,-0.67922 2.65565,-1.607355 3.1582,-2.634765 0.50257,-1.02741 0.47614,-2.012912 0.48633,-2.666016 0.0101,-0.653012 0.0687,-0.827322 0.11133,-0.871094 0.0426,-0.04369 0.48945,-0.324218 1.93359,-0.324218 1.44412,0 1.89372,0.281209 1.9375,0.326171 0.0439,0.04471 0.1022,0.22023 0.11328,0.873047 0.011,0.652809 -0.0147,1.635299 0.48829,2.66211 0.50297,1.026811 1.52111,1.955747 3.16015,2.634765 1.63978,0.679314 3.01574,0.742321 4.09766,0.371094 1.08194,-0.371219 1.7593,-1.084466 2.22851,-1.539062 0.46922,-0.454597 0.63366,-0.540223 0.69532,-0.541016 0.053,0 0.44441,0.09147 1.20117,0.765625 0.6331,-0.524772 1.30262,-1.004216 2.0039,-1.439453 C 37.42758,5.393098 36.45523,4.77222 35.35352,4.787109 34.21789,4.802969 33.50109,5.526019 33.00391,6.007812 32.50674,6.489403 32.13132,6.839064 31.67383,6.996093 31.21636,7.153014 30.56566,7.208432 29.28906,6.679687 28.01305,6.151043 27.59178,5.651341 27.37891,5.216796 27.16605,4.782251 27.14844,4.271995 27.13672,3.580078 27.12512,2.888154 27.13072,1.86965 26.33789,1.05664 25.54581,0.243622 24.37708,4.97e-4 22.66602,0 Z m 37.97071,13.443359 -1.88672,2.191407 c 1.02997,1.80728 1.62109,3.899205 1.62109,6.134765 0,3.04352 -1.09292,5.823873 -2.9043,7.976563 h 3.39454 c 1.44268,-2.31894 2.27929,-5.051453 2.27929,-7.976563 0,-3.07349 -0.92376,-5.934382 -2.5039,-8.326172 z m -33.06055,3.888672 c -6.22233,0 -3.7639,0.01534 -9.98633,0.02344 l -0.11133,1.085937 c 5.60842,0.01252 2.61303,-0.03839 8.2168,-0.01172 l -1.75391,2.769531 -1.19726,-2.056641 h -1.75586 l 2.03906,3.345703 -3.61133,5.134766 c 6.22253,0 3.78324,-0.02689 10.00586,-0.05274 0.0356,-0.364366 0.0718,-0.727438 0.10742,-1.091796 l -8.14843,0.02734 2.17773,-3.197265 1.47461,2.470703 h 1.76172 l -2.30859,-3.738281 z"
     id="icon-maincolor" style="fill:var(--icon-main)"/>
  <path
     d="m 47.98633,6.617187 c -8.35215,0 -15.15235,6.800171 -15.15235,15.152344 0,2.92501 0.83662,5.657623 2.2793,7.976563 h 3.39453 c -1.8114,-2.15269 -2.90234,-4.933143 -2.90234,-7.976563 0,-6.85508 5.5258,-12.38086 12.38086,-12.38086 2.23239,0 4.32328,0.588027 6.1289,1.615235 L 56.30664,9.115234 C 53.91638,7.537939 51.05682,6.617187 47.98633,6.617187 Z m -24.58789,3.634766 c -7.03971,0 -12.77149,5.731785 -12.77149,12.771485 0,2.46535 0.70394,4.768076 1.91993,6.722656 h 2.86132 c -1.52676,-1.81443 -2.44531,-4.157456 -2.44531,-6.722656 0,-5.777851 4.65768,-10.4375 10.43555,-10.4375 1.8816,0 3.64216,0.497557 5.16406,1.363281 l 1.84766,-1.591797 c -2.01465,-1.329549 -4.42372,-2.105469 -7.01172,-2.105469 z m 35.07812,0.71875 a 0.27701333,0.27701333 0 0 0 -0.17187,0.08008 L 47.14063,20.667969 A 1.3850666,1.3850666 0 0 0 47,20.789062 a 1.3850666,1.3850666 0 0 0 0,1.957032 1.3850666,1.3850666 0 0 0 1.95898,0 1.3850666,1.3850666 0 0 0 0.12696,-0.146485 l 9.60937,-11.15625 a 0.27701333,0.27701333 0 0 0 0,-0.392578 0.27701333,0.27701333 0 0 0 -0.21875,-0.08008 z"
     id="icon-detail" style="fill:var(--icon-detail)"/>
</svg>
